X:1
T:No Use For Him
M:4/4
L:1/8
K:G
 G,A,| B, B,2 D3 D2| G,2 A, B,- B,3 B,| B, A,2 A,3 F, G,-| G,4 z2|\
 G,A,| B, B,3 D2 D2| G,2 A, B,- B,3 B,| B, A,3 A,2 B, D-| D4 z2| DD|\
 E2 E E3 F2| G G3 z2 E2| D D2 D3 E B,-| B,4 z2| z B,| E E3 E2 F G-|\
 G2 A G3 EE| D D2 B,3 G, A,-| A,4 z2| A,B,| C C3 B,2 G, A,-| A,4 z A,A, B,|\
 A,/2 G,/2 G,- G,6| z4 z2| G,A,| B, B,2 B,- D2 D G,-| G,4 z G,A, B,|\
 B,A, A,2 z A,B, G,-| G,4 z2| z2| B, B,3 D2 D2| G,2 A, B,- B,3 B,|\
 B, A,3 A,2 B, D-| D4 z2| DD| E E3 E F3| G2 G2 F E2 z|
